X: 1
T: The Cage
C: James Hill
M: 4/4
L: 1/8
K: Amaj
AB|cBdc BAcB|A[EC][EC][EC] [E2C2]FG|AFBA cBdc|BAGA [B2G2]ed|
cBdc BAcB|AFBA GFED|CEAE FdBG|[B2G2]A2 A2:|
|:(3efg|aAce agba|gfag f2 (3agf|eEGB ecfe|dcac B2AB|
cBdc BAcB|AFBA GFED|CEAE FdBG|[B2G2]A2 A2:|
